svg/blobs-icons/no-decorations/sponge.svg

<svg xmlns="http://www.w3.org/2000/svg" xmlns:xlink="http://www.w3.org/1999/xlink" preserveAspectRatio="xMidYMid" width="217" height="204" viewBox="0 0 217 204"><defs><style>.cls-3{fill:#ff3a2f}.cls-4{fill:#fff}.cls-5{fill:#020403;opacity:.35}.cls-6{fill:#2476ff}.cls-8{fill:#020403;opacity:.25}</style></defs><g id="group-151svg"><path d="M3.741 121.153c9.718-19.322 43.798-39.162 97.826-39.162 54.028.0 97.828 17.533 97.828 39.162.0.0 10.059 47.542-4.31200000000001 58.319.0.0-113.531 54.138-191.342.0.0.0-7.645-43.118.0-58.319z" id="path-1" class="cls-3" fill-rule="evenodd"/><path d="M16.75 133.442C16.205 133.442 15.651 133.32 15.13 133.058 13.346 132.159 12.627 129.987 13.524 128.204 23.828 107.72 59.07 87.053 114.58 87.053c1.996.0 3.614 1.61800000000001 3.614 3.614.0 1.995-1.61800000000001 3.615-3.614 3.615-52.15.0-85.593 19.268-94.597 37.17C19.349 132.714 18.074 133.442 16.75 133.442z" id="path-2" class="cls-4" fill-rule="evenodd"/><path d="M.569 135.898C78.38 190.036 195.083 136.357 195.083 136.357s5.821-6.529 5.821-6.529 7.87 36.853-5.821 49.644c0 0-113.531 54.139-191.342.0C.477 163.107-.799 148.401.569 135.898z" id="path-3" class="cls-5" fill-rule="evenodd"/><path d="M180.506 50.129C180.506 60.334 172.234 68.606 162.03 68.606 151.825 68.606 143.553 60.334 143.553 50.129 143.553 39.924 151.825 31.652 162.03 31.652c10.204.0 18.476 8.272 18.476 18.477z" id="path-4" class="cls-6" fill-rule="evenodd"/><path d="M176.423 45.791C176.423 51.345 171.921 55.847 166.367 55.847c-5.553.0-10.055-4.502-10.055-10.056C156.312 40.238 160.814 35.736 166.367 35.736c5.554.0 10.056 4.502 10.056 10.055z" id="path-5" class="cls-4" fill-rule="evenodd"/><path d="M137.132 158.568c0 10.204-8.273 18.478-18.477 18.478s-18.476-8.274-18.476-18.478c0-10.204 8.27199999999999-18.477 18.476-18.477s18.477 8.273 18.477 18.477z" id="path-6" class="cls-8" fill-rule="evenodd"/><path d="M41.504 173.546C41.504 179.382 36.772 184.111 30.938 184.111 25.102 184.111 20.372 179.382 20.372 173.546 20.372 167.711 25.102 162.981 30.938 162.981 36.772 162.981 41.504 167.711 41.504 173.546z" id="path-7" class="cls-8" fill-rule="evenodd"/><path d="M81.302 123.576C81.302 127.193 78.368 130.126 74.752 130.126 71.134 130.126 68.201 127.193 68.201 123.576 68.201 119.959 71.134 117.027 74.752 117.027 78.368 117.027 81.302 119.959 81.302 123.576z" id="path-8" class="cls-8" fill-rule="evenodd"/><path d="M196.006 110.143c-3.542 4.828-10.328 5.869-15.156 2.325C176.022 108.925 174.981 102.138 178.525 97.311 185.049 100.266 190.953 104.395 196.006 110.143z" id="path-9" class="cls-8" fill-rule="evenodd"/><path d="M217.217 10.852C217.217 16.841 212.362 21.697 206.374 21.697s-10.843-4.856-10.843-10.845C195.531 4.865 200.386.011 206.374.011s10.843 4.854 10.843 10.841z" id="path-10" class="cls-6" fill-rule="evenodd"/></g></svg>

<svg xmlns="http://www.w3.org/2000/svg" xmlns:xlink="http://www.w3.org/1999/xlink" preserveAspectRatio="xMidYMid" width="217" height="204" viewBox="0 0 217 204">
  <defs>
    <style>

      .cls-3 {
        fill: #ff3a2f;
      }

      .cls-4 {
        fill: #ffffff;
      }

      .cls-5 {
        fill: #020403;
        opacity: 0.35;
      }

      .cls-6 {
        fill: #2476ff;
      }

      .cls-8 {
        fill: #020403;
        opacity: 0.25;
      }
    </style>
  </defs>
  <g id="group-151svg">
    <path d="M3.741,121.153 C13.459,101.831 47.539,81.991 101.567,81.991 C155.595,81.991 199.395,99.524 199.395,121.153 C199.395,121.153 209.454,168.695 195.083,179.472 C195.083,179.472 81.552,233.610 3.741,179.472 C3.741,179.472 -3.904,136.354 3.741,121.153 Z" id="path-1" class="cls-3" fill-rule="evenodd"/>
    <path d="M16.750,133.442 C16.205,133.442 15.651,133.320 15.130,133.058 C13.346,132.159 12.627,129.987 13.524,128.204 C23.828,107.720 59.070,87.053 114.580,87.053 C116.576,87.053 118.194,88.671 118.194,90.667 C118.194,92.662 116.576,94.282 114.580,94.282 C62.430,94.282 28.987,113.550 19.983,131.452 C19.349,132.714 18.074,133.442 16.750,133.442 Z" id="path-2" class="cls-4" fill-rule="evenodd"/>
    <path d="M0.569,135.898 C78.380,190.036 195.083,136.357 195.083,136.357 C195.083,136.357 200.904,129.828 200.904,129.828 C200.904,129.828 208.774,166.681 195.083,179.472 C195.083,179.472 81.552,233.611 3.741,179.472 C0.477,163.107 -0.799,148.401 0.569,135.898 Z" id="path-3" class="cls-5" fill-rule="evenodd"/>
    <path d="M180.506,50.129 C180.506,60.334 172.234,68.606 162.030,68.606 C151.825,68.606 143.553,60.334 143.553,50.129 C143.553,39.924 151.825,31.652 162.030,31.652 C172.234,31.652 180.506,39.924 180.506,50.129 Z" id="path-4" class="cls-6" fill-rule="evenodd"/>
    <path d="M176.423,45.791 C176.423,51.345 171.921,55.847 166.367,55.847 C160.814,55.847 156.312,51.345 156.312,45.791 C156.312,40.238 160.814,35.736 166.367,35.736 C171.921,35.736 176.423,40.238 176.423,45.791 Z" id="path-5" class="cls-4" fill-rule="evenodd"/>
    <path d="M137.132,158.568 C137.132,168.772 128.859,177.046 118.655,177.046 C108.451,177.046 100.179,168.772 100.179,158.568 C100.179,148.364 108.451,140.091 118.655,140.091 C128.859,140.091 137.132,148.364 137.132,158.568 Z" id="path-6" class="cls-8" fill-rule="evenodd"/>
    <path d="M41.504,173.546 C41.504,179.382 36.772,184.111 30.938,184.111 C25.102,184.111 20.372,179.382 20.372,173.546 C20.372,167.711 25.102,162.981 30.938,162.981 C36.772,162.981 41.504,167.711 41.504,173.546 Z" id="path-7" class="cls-8" fill-rule="evenodd"/>
    <path d="M81.302,123.576 C81.302,127.193 78.368,130.126 74.752,130.126 C71.134,130.126 68.201,127.193 68.201,123.576 C68.201,119.959 71.134,117.027 74.752,117.027 C78.368,117.027 81.302,119.959 81.302,123.576 Z" id="path-8" class="cls-8" fill-rule="evenodd"/>
    <path d="M196.006,110.143 C192.464,114.971 185.678,116.012 180.850,112.468 C176.022,108.925 174.981,102.138 178.525,97.311 C185.049,100.266 190.953,104.395 196.006,110.143 Z" id="path-9" class="cls-8" fill-rule="evenodd"/>
    <path d="M217.217,10.852 C217.217,16.841 212.362,21.697 206.374,21.697 C200.386,21.697 195.531,16.841 195.531,10.852 C195.531,4.865 200.386,0.011 206.374,0.011 C212.362,0.011 217.217,4.865 217.217,10.852 Z" id="path-10" class="cls-6" fill-rule="evenodd"/>
  </g>
</svg>
